X: 23008
T: Last Inn, The
R: reel
M: 4/4
K: Eminor
|:EB Bc ecA|F2D FG AB|EB Bc A2B|1 AF FA B2G:|2 AF FA B2A||
|:B2e fg ag|f2e fB BA|B2e fg af|1 ecA GA Bc:|2 ecA BA GF|
|:G2Bd gfe|B2d2 cBA|=F2D2 FGA|1 G2E2 GAB:|2 d2A G2F2||

